X:23
T:Basse danse - Entre du Fol
R:
C:Tielman Susato
H:
N:22
B:
O:Flandres
A:
Z:<anamnese@laposte.net> -- http://anamnese.fr.st
M:C
L:1/8
Q:1/4=110
K:F
(GF)FA G2G2 |(FE)FG F2F2 | G2 AB cBAG | A4 z4 |
(AG)AB ABcd | c2 B2 A2 G2| (FG)AG (FE)G^F | G4 z4 |
(AG)AB A2A2 | A4 z2 A2 | B
